X: 1
T: Seanamhac Tube Station
R: jig
C: John Carty
D: John Carty: Yeh That's All It Is
F: http://perso.wanadoo.fr/shelta/Images/shelta.abc
M: 6/8
K: Ador
|:"Am"AGE EDE|ABd ~e3|"G"edB dBG|AGE DEG\
| "Am"AGE EDE|ABd ~e3|"G"edB dBG|1 "F"A2B "G"c2B:|2 "Am"~A3 AB/c/d||
[|"Am"~e3 edB|"G"~d3 age|"Em"edB dBG|AGE DB/c/d\
| "Am"~e3 edB|"G"~d3 age|"Em"edB dBG|"Am"~A3 AB/c/d|]
[| "F"~e3 aea|"G"~d3 age|"Em"edB dBG|AGE DEG\
| "Am"AGE AGE|AGE edB|"Em"edB edB|"F"A2B "G"c2B||
